src/pos-icons/pencil-plus-outline.svg

<svg height="24" viewBox="0 0 24 24" width="24" xmlns="http://www.w3.org/2000/svg"><path d="m14.1 9 .9.9-9.1 9.1h-.9v-.9zm3.6-6c-.2 0-.5.1-.7.3l-1.8 1.8 3.7 3.8 1.8-1.9c.4-.4.4-1 0-1.4l-2.3-2.3c-.2-.2-.5-.3-.7-.3m-3.6 3.2-11.1 11v3.8h3.8l11-11.1zm-7.1-4.2v3h3v2h-3v3h-2v-3h-3v-2h3v-3z"/></svg>

<?xml version="1.0" encoding="UTF-8"?><!DOCTYPE svg PUBLIC "-//W3C//DTD SVG 1.1//EN" "http://www.w3.org/Graphics/SVG/1.1/DTD/svg11.dtd"><svg xmlns="http://www.w3.org/2000/svg" xmlns:xlink="http://www.w3.org/1999/xlink" version="1.1" id="mdi-pencil-plus-outline" width="24" height="24" viewBox="0 0 24 24"><path d="M14.1,9L15,9.9L5.9,19H5V18.1L14.1,9M17.7,3C17.5,3 17.2,3.1 17,3.3L15.2,5.1L18.9,8.9L20.7,7C21.1,6.6 21.1,6 20.7,5.6L18.4,3.3C18.2,3.1 17.9,3 17.7,3M14.1,6.2L3,17.2V21H6.8L17.8,9.9L14.1,6.2M7,2V5H10V7H7V10H5V7H2V5H5V2H7Z" /></svg>
